X: 1
T: B\`u b\`u g\=ao
T: Bu4 bu4 gao1
%T: 步步高
T: Stepping high; Moving up
O: trad Guangdong
Z: 2008 John Chambers <jc@trillian.mit.edu>
S: http://www.summerthundermusic.com/index_files/SE_data/BuBuGao.jpg
N: Combined version from several printed sources and recordings, especially prof Chi Li (gaohu, UCLA),
N: the Silk and Bamboo Ensemble, and the 17th Street Guitars & World Music group.
M: 4/4
L: 1/16
K: D
|: F2F2 A4 | a2f2 (ef)d2 | B2d2 A2A2 | z2(FA) E2F2 | A2(FA) d2F2 | A4 (GA)F2 |
| (GA)F2 (EF)(AB) | D2D2- D2(EF) | D2(EF) D2EF | D2D2 z2E2 | (FE)F2 z2A2 | B2d2 (AB)G2 |
| (FE)F2 z2A2 | e6 f2 | (ef)(ed) (Bd)(ef) | d3B A2B2 | d2Bd A2B2 | d4 d2(BA) |
| (FA)(Bd) A4 | z2(DE) F2E2 | F2(DE) F2E2 | F2(EF) A2(FE) | D2C2 D4 | z2(A,B,) D2E2 |
| F2F2 z2A2 | d2c2 B2A2 | f2f2 z2e2 | d4 z4 | Te3f d4 | Te3f d4 |
| (fe)(de) (fe)(de) | (fa)(fe) d2d2 | z2(Bd) A2F2 | z2B2 A2G2 | F2E2 D2E2 | F2B,2 C2E2 |
| F2F2 z2(BA) | F2A2 z2(Bd) | A2A2 z2(Bd) | A2A2 z2e2 | d2d2 z(fe) | d2d2 z2e2 |
| f2f2 z2e2 | f2e2 f2a2 | e2d2 c2B2 | A2A2 z2(BA) | G2A2 z2F2 | A2z2 A2(FE) |
| (DE)(FA) E2A,2 | D4 d3c | B2B2 A3B | F2F2 G3F | E2E2 F3E | D2(A,B,) D2D2 |
| D2(DF) A2A2 | A2(dB) (Ad)(BA) | F2(EF) (ED)(DE) | F3E F2A2 | B2c2 (de)(fe) | d2(c2 d2)z2 :|
%
%%text http://www.youtube.com/watch?v=azO_fOjFZMc
%%text http://www.youtube.com/watch?v=00EKv3gSGms
%%text http://vdo.clip4play.com/?w=U6WKS98YRI0&title=Bu-Bu-Gao
